X:1
T:He Redeemed Me
T:He Redeemed Me
T:S. C. Hanson
T:George B. Marquart, 1897
T:Public Domain Courtesy of the Cyber Hymnal™
T:Public Domain Courtesy of the Cyber Hymnal™
C:S. C. Hanson
Z:Public Domain
Z:Courtesy of the Cyber Hymnal™
%%score ( 1 2 ) 3
L:1/8
Q:1/4=105
M:4/4
K:Ab
V:1 treble 
V:2 treble 
V:3 bass 
V:1
 [CE]>[CE] | [CE]2 [CA]2 [Ec]2 [CE]>[CE] | [DF]2 [FA]2 [Fd]2 [DF]2 | %3
w: 1.~From a|roy- al throne that in|Hea- ven shone The|
w: 2.~Oh, be|glad and sing, for He|came to bring Re-|
w: 3.~When on|earth He dwelt, oft in|prayer He knelt, The|
w: 4.~He trans-|formed the tomb with its|night of gloom, Let|
 [DF][=B,=D][CE][CA] [Ec]2 [CA]2 | [EB]6 [DE]2 | ([CE][=B,=D])[CE][CA] [Ec]2 [CE]2 | %6
w: kind and lov- ing Sav- ior|came; The|low- * ly to raise and|
w: demp- tion to a help- less|race; Raise|high * now each voice, come|
w: lost and err- ing world to|save; Oh|won- * der- ful thought, with|
w: not His child- ren cease to|sing; The|deeds * of His love, He|
 ([DF][C=E])[DF][FA] [Fd]2 [DF]2 | ([CE][=B,=D])[CE][CA] [Ec]2 [_D_B]2 | [CA]6 || %9
w: bring * to His praise, Who|trust * in His pre- cious|name.|
w: sing * and re- joice— We’re|saved * by His boun- teous|grace.|
w: ten- * der- ness fraught, His|life * for His foes He|gave.|
w: pleads * now a- bove, Our|Sav- * ior and friend and|king.|
"^Refrain" [CE]>[CE] | [CE]4 [CA]2 [CE]>[CE] | [DF]4 [FB]2 [FB]>[FB] | [=DA]2 [DA]2 [DG]2 [DF]2 | %13
w: ||||
w: He re-|deemed me, He re-|deemed me, From my|sin He set me|
w: ||||
w: ||||
 E6 [DE]>[DE] | [CE]4 [CA]2 [CE]>[CE] | [DF]4 [FB]2 [DF]>[DF] | %16
w: |||
w: free! He re-|deemed me, He re-|deemed me, He re-|
w: |||
w: |||
 ([CE][=B,=D])[CE][CA] [Ec]2 [_D_B]2 | [CA]6 |] %18
w: ||
w: deemed * me on Cal- va-|ry.|
w: ||
w: ||
V:2
 x2 | x8 | x8 | x8 | x8 | x8 | x8 | x8 | x6 || x2 | x8 | x8 | x8 | E6 x2 | x8 | x8 | x8 | x6 |] %18
V:3
 [A,,A,]>[A,,A,] | [A,,A,]2 [A,,A,]2 [A,,A,]2 [A,,A,]>[A,,A,] | [D,A,]2 [D,A,]2 [D,A,]2 [D,A,]2 | %3
w: ~ ~|~ ~ ~ ~ ~|~ ~ ~ ~|
 [A,,A,][A,,A,][A,,A,][A,,A,] [A,,A,]2 [A,,A,]2 | [E,G,]6 [E,G,]2 | %5
w: ~ ~ ~ ~ ~ ~|~ ~|
 [A,,A,]2 [A,,A,][A,,A,] [A,,A,]2 [A,,A,]2 | [D,A,]2 [D,A,][D,A,] [D,A,]2 [D,A,]2 | %7
w: ~ ~ ~ ~ ~|~ ~ ~ ~ ~|
 [E,A,]2 [E,A,][E,A,] [E,A,]2 [E,G,]2 | [A,,A,]6 || [A,,A,]>[A,,A,] | %10
w: ~ ~ ~ ~ ~|~|He re-|
 [A,,A,]2 [A,,A,]2 [A,,A,]2 [A,,A,]2 | [D,A,][D,A,][D,A,][D,A,] [D,A,]2 [D,A,]>[D,A,] | %12
w: deemed me, yes, He|saves a fall- en race, ~ ~|
 [B,,C]2 [B,,C]2 [B,,B,]2 [B,,A,]2 | [E,G,]6 [E,G,]>[E,G,] | %14
w: ~ ~ ~ ~|~ He re-|
 [A,,A,]2 [A,,A,]2 [A,,A,]2 [A,,A,]>[A,,A,] | [D,A,]2 [D,A,][D,A,] [D,A,]2 [D,A,]>[D,A,] | %16
w: deemed me, yes, I am|saved by His grace, * *|
 [E,A,]2 [E,A,][E,A,] [E,A,]2 [E,G,]2 | [A,,A,]6 |] %18
w: ||

